app/assets/images/heroicons/mini/user-plus.svg

<svg width="20" height="20" viewBox="0 0 20 20" fill="none" xmlns="http://www.w3.org/2000/svg">
<path d="M10 5C10 6.65685 8.65685 8 7 8C5.34315 8 4 6.65685 4 5C4 3.34315 5.34315 2 7 2C8.65685 2 10 3.34315 10 5Z" fill="#0F172A"/>
<path d="M1.61528 16.428C1.21798 16.1736 0.987847 15.721 1.04605 15.2529C1.41416 12.292 3.93944 10 6.9999 10C10.0604 10 12.5856 12.2914 12.9537 15.2522C13.012 15.7203 12.7818 16.1729 12.3845 16.4273C10.8302 17.4225 8.98243 18 6.9999 18C5.01737 18 3.16959 17.4231 1.61528 16.428Z" fill="#0F172A"/>
<path d="M16.25 5.75C16.25 5.33579 15.9142 5 15.5 5C15.0858 5 14.75 5.33579 14.75 5.75V7.75H12.75C12.3358 7.75 12 8.08579 12 8.5C12 8.91421 12.3358 9.25 12.75 9.25H14.75V11.25C14.75 11.6642 15.0858 12 15.5 12C15.9142 12 16.25 11.6642 16.25 11.25V9.25H18.25C18.6642 9.25 19 8.91421 19 8.5C19 8.08579 18.6642 7.75 18.25 7.75H16.25V5.75Z" fill="#0F172A"/>
</svg>

<svg xmlns="http://www.w3.org/2000/svg" viewBox="0 0 20 20" fill="currentColor" aria-hidden="true" data-slot="icon">
  <path d="M10 5a3 3 0 1 1-6 0 3 3 0 0 1 6 0ZM1.615 16.428a1.224 1.224 0 0 1-.569-1.175 6.002 6.002 0 0 1 11.908 0c.058.467-.172.92-.57 1.174A9.953 9.953 0 0 1 7 18a9.953 9.953 0 0 1-5.385-1.572ZM16.25 5.75a.75.75 0 0 0-1.5 0v2h-2a.75.75 0 0 0 0 1.5h2v2a.75.75 0 0 0 1.5 0v-2h2a.75.75 0 0 0 0-1.5h-2v-2Z"/>
</svg>
